dist/icons/svgs/image-outline.svg

<svg xmlns="http://www.w3.org/2000/svg" width="24" height="24" fill="currentcolor" class="icon-image-outline" viewBox="0 0 24 24">
  <path d="M19.5 5.125H4.5C4.14844 5.125 3.875 5.4375 3.875 5.75V18.25V18.2891L4.03125 18.0547L7.15625 13.6797C7.35156 13.4062 7.625 13.25 7.9375 13.25C8.21094 13.25 8.52344 13.4062 8.67969 13.6406L9.89062 15.3203L13.1328 11.1406C13.2891 10.9062 13.5625 10.75 13.875 10.75C14.1484 10.75 14.4219 10.9062 14.6172 11.1406L19.9297 18.0156L20.125 18.25V5.75C20.125 5.4375 19.8125 5.125 19.5 5.125ZM4.5 3.25H19.5C20.8672 3.25 22 4.38281 22 5.75V18.25C22 19.6562 20.8672 20.75 19.5 20.75H4.5C3.09375 20.75 2 19.6562 2 18.25V5.75C2 4.38281 3.09375 3.25 4.5 3.25ZM7.625 10.75C6.92188 10.75 6.33594 10.3984 5.98438 9.8125C5.63281 9.26562 5.63281 8.52344 5.98438 7.9375C6.33594 7.39062 6.92188 7 7.625 7C8.28906 7 8.875 7.39062 9.22656 7.9375C9.57812 8.52344 9.57812 9.26562 9.22656 9.8125C8.875 10.3984 8.28906 10.75 7.625 10.75Z"/>
</svg>

<svg xmlns="http://www.w3.org/2000/svg" width="24" height="24" fill="currentColor" class="icon-image-outline" viewBox="0 0 24 24">
  <path d="M19.5 5.125h-15a.64.64 0 0 0-.625.625v12.54l.156-.235 3.125-4.375c.196-.274.469-.43.782-.43.273 0 .585.156.742.39l1.21 1.68 3.243-4.18a.89.89 0 0 1 .742-.39c.273 0 .547.156.742.39l5.313 6.876.195.234V5.75c0-.312-.312-.625-.625-.625M4.5 3.25h15c1.367 0 2.5 1.133 2.5 2.5v12.5c0 1.406-1.133 2.5-2.5 2.5h-15a2.47 2.47 0 0 1-2.5-2.5V5.75c0-1.367 1.094-2.5 2.5-2.5m3.125 7.5a1.87 1.87 0 0 1-1.64-.937c-.352-.547-.352-1.29 0-1.876.35-.546.937-.937 1.64-.937.664 0 1.25.39 1.602.938.351.585.351 1.328 0 1.875-.352.585-.938.937-1.602.937"/>
</svg>
